symbols/web/bedroom_child/materialsymbolssharp/bedroom_child_wght500grad200fill1_24px.svg

<svg xmlns="http://www.w3.org/2000/svg" height="24" width="24"><path d="M5.575 17.525H7.6v-1.55h8.8v1.55h2.025V10.35h-1.55V6.175h-9.75v4.175h-1.55ZM9.15 10.15V8.2h5.7v1.95Zm-1.55 3.8V12h8.8v1.95Zm-6.475 8.925V1.125h21.75v21.75Z"/></svg>

<svg xmlns="http://www.w3.org/2000/svg" height="24" width="24"><path d="M5.575 17.525H7.6V15.975H16.4V17.525H18.425V10.35H16.875V6.175H7.125V10.35H5.575ZM9.15 10.15V8.2H14.85V10.15ZM7.6 13.95V12H16.4V13.95ZM1.125 22.875V1.125H22.875V22.875Z"/></svg>
